_assets/images/vector/web_icon.svg

<svg viewBox="0 0 45 30" version="1.1" xmlns="http://www.w3.org/2000/svg" xmlns:xlink="http://www.w3.org/1999/xlink">
    <g id="Canvas" transform="translate(-31993 -5446)">
        <g id="Vector 3">
            <use xlink:href="#path0_stroke" transform="translate(31993.5 5446.5)" fill="#A6A6A6"/>
        </g>
    </g>
    <defs>
        <path id="path0_stroke" d="M 3.5 26L 3.5 2L 2.5 2L 2.5 26L 3.5 26ZM 5 0.5L 40 0.5L 40 -0.5L 5 -0.5L 5 0.5ZM 41.5 2L 41.5 26L 42.5 26L 42.5 2L 41.5 2ZM 42 25.5L 3 25.5L 3 26.5L 42 26.5L 42 25.5ZM 1.5 29.5L 42.5 29.5L 42.5 28.5L 1.5 28.5L 1.5 29.5ZM 42.5 25.5L 42 25.5L 42 26.5L 42.5 26.5L 42.5 25.5ZM 3 25.5L 1.5 25.5L 1.5 26.5L 3 26.5L 3 25.5ZM 3.5 2C 3.5 1.17157 4.17157 0.5 5 0.5L 5 -0.5C 3.61929 -0.5 2.5 0.619288 2.5 2L 3.5 2ZM 40 0.5C 40.8284 0.5 41.5 1.17157 41.5 2L 42.5 2C 42.5 0.619288 41.3807 -0.5 40 -0.5L 40 0.5ZM 0.5 27.5C 0.5 26.9477 0.947715 26.5 1.5 26.5L 1.5 25.5C 0.39543 25.5 -0.5 26.3954 -0.5 27.5L 0.5 27.5ZM -0.5 27.5C -0.5 28.6046 0.39543 29.5 1.5 29.5L 1.5 28.5C 0.947715 28.5 0.5 28.0523 0.5 27.5L -0.5 27.5ZM 42.5 29.5C 43.6046 29.5 44.5 28.6046 44.5 27.5L 43.5 27.5C 43.5 28.0523 43.0523 28.5 42.5 28.5L 42.5 29.5ZM 44.5 27.5C 44.5 26.3954 43.6046 25.5 42.5 25.5L 42.5 26.5C 43.0523 26.5 43.5 26.9477 43.5 27.5L 44.5 27.5Z"/>
    </defs>
</svg>

<svg viewBox="0 0 45 30" xmlns="http://www.w3.org/2000/svg" xmlns:xlink="http://www.w3.org/1999/xlink"><use xlink:href="#a" transform="translate(.5 .5)" fill="#A6A6A6"/><defs><path id="a" d="M3.5 26V2h-1v24h1zM5 .5h35v-1H5v1zM41.5 2v24h1V2h-1zm.5 23.5H3v1h39v-1zm-40.5 4h41v-1h-41v1zm41-4H42v1h.5v-1zM3 25.5H1.5v1H3v-1zM3.5 2A1.5 1.5 0 0 1 5 .5v-1A2.5 2.5 0 0 0 2.5 2h1zM40 .5A1.5 1.5 0 0 1 41.5 2h1A2.5 2.5 0 0 0 40-.5v1zM.5 27.5a1 1 0 0 1 1-1v-1a2 2 0 0 0-2 2h1zm-1 0a2 2 0 0 0 2 2v-1a1 1 0 0 1-1-1h-1zm43 2a2 2 0 0 0 2-2h-1a1 1 0 0 1-1 1v1zm2-2a2 2 0 0 0-2-2v1a1 1 0 0 1 1 1h1z"/></defs></svg>
